X: 12013
T: Equator Light
R: waltz
M: 3/4
K: Amajor
A,2 E2 G>A|A6|AG E2 z A,|E3 GA C|D2 CB, E-|E6|
A,2 E2 G>A|A4 EA|{A}B2 cA C C-|D2 A {B,}C2 B, -|A,2 B,C E [HE]:|
EE c4-|c c A E A c-|d4 d c|(3EAd e8/3 cB|B2 (3Bcd c>A|
{C}D2 D CD E|[HE4] EE|c4 cA|(3EAc d3 c/B/|[HB] 2 BABc|
F4 (3FGA|F4 E C|B,2 A,B, C E|[HE4] EE|
e2cBce|c6|c2A E A c|d6-|d2cE Ad|e2 cB (3Bcd|
c>AD CD E|E4 A,A,|F4 (3FDA,|G3 A B A|B c3 A C|
(3EDC E [HD] DD|D2 CB, E-|E2 B, A, (3B,CE|B, [HA,5]||

